48x48/apps/yed.svg

<svg xmlns="http://www.w3.org/2000/svg" width="48" height="48" version="1">
 <path style="opacity:0.2" d="m 24.128455,5.0000045 c -0.348044,-2.862e-4 -0.705635,0.015226 -1.08303,0.0438 -2.586949,0.195833 -3.858713,0.7451057 -9.612533,4.1517459 -4.7993895,2.8415556 -6.5413592,4.4884726 -7.6266915,7.2102306 -0.6092105,1.527756 -0.6803654,2.258731 -0.7738393,7.95252 -0.084922,5.173017 -0.017865,6.566981 0.3840395,7.966927 0.6104516,2.126393 1.9055135,4.184494 3.5306437,5.610966 1.6229366,1.424546 10.1387386,6.261271 11.9075636,6.763013 1.921241,0.544976 5.775999,0.319858 7.485053,-0.436844 2.532979,-1.121504 9.98139,-5.704113 11.114727,-6.838509 C 42.293567,34.582021 43,32.13019 43,25.12249 43,19.36095 42.729495,17.635291 41.443109,15.192646 40.182223,12.798422 38.478876,11.3981 33.242947,8.4503806 28.515334,5.788835 26.564781,5.0020021 24.128455,5.0000045 Z"/>
 <path style="fill:#3b3a76" d="m 24.128455,4.0000038 c -0.348044,-2.862e-4 -0.705635,0.015226 -1.08303,0.0438 -2.586949,0.195833 -3.858713,0.7451057 -9.612533,4.1517459 C 8.6335025,11.037105 6.8915328,12.684022 5.8062005,15.40578 5.19699,16.933536 5.1258351,17.664511 5.0323612,23.3583 c -0.084922,5.173017 -0.017865,6.566981 0.3840395,7.966927 0.6104516,2.126393 1.9055135,4.184494 3.5306437,5.610966 1.6229366,1.424546 10.1387386,6.261271 11.9075636,6.763013 1.921241,0.544976 5.775999,0.319858 7.485053,-0.436844 2.532979,-1.121504 9.98139,-5.704113 11.114727,-6.838509 C 42.293567,33.58202 43,31.130189 43,24.122489 43,18.360949 42.729495,16.63529 41.443109,14.192645 40.182223,11.798421 38.478876,10.398099 33.242947,7.4503799 28.515334,4.7888343 26.564781,4.0020014 24.128455,4.0000038 Z"/>
 <path style="opacity:0.2" d="m 23.517578,11.056145 c -0.379397,0.02288 -0.77433,0.136676 -1.162109,0.361328 -0.343966,0.199269 -1.081001,1.04231 -1.636719,1.873047 -1.487213,2.223206 -2.918402,3.024433 -5.851562,3.273437 -1.919009,0.162907 -2.552436,0.33988 -3.144532,0.876953 -0.986505,0.894827 -0.963725,2.206039 0.07227,4.13086 0.640884,1.190739 0.814453,1.912844 0.814453,3.396484 0,1.483644 -0.173569,2.205744 -0.814453,3.396484 -0.171281,0.318233 -0.30269,0.609102 -0.417969,0.888672 -0.133266,0.195984 -0.238271,0.409926 -0.302734,0.636719 -0.07189,0.252905 -0.08682,0.518992 -0.05859,0.787109 -0.02603,0.670545 0.205844,1.215171 0.703125,1.695313 0.990707,0.791643 1.920966,0.624991 2.984375,0.751953 2.708739,0.163268 4.061752,0.953515 5.800781,3.384766 2.38498,3.334326 3.763344,3.323119 6.033203,-0.04687 1.49757,-2.223405 2.868659,-3.457346 5.542969,-3.642579 2.503025,-0.173366 3.44199,-0.670503 3.773438,-1.992187 0.31393,-1.251793 -0.210352,-2.178148 -1.503907,-2.654297 -1.278377,-0.470554 -2.377496,0.153647 -3.582031,2.035156 -1.139419,1.779799 -2.371005,3.219955 -3.828125,3.595704 -1.457247,0.375782 -6.110723,0.306349 -7.181641,-0.107422 -1.492211,-0.576548 -2.930603,-1.805992 -3.740234,-3.195313 -0.542255,-0.700175 -0.898006,-1.507766 -1.234375,-2.220703 -1.536588,-2.878209 -1.354848,-4.541706 0.884766,-8.103516 2.061092,-3.277889 3.989433,-4.484375 7.167969,-4.484375 1.255475,0 2.699839,-0.639789 2.96875,-1.316406 0.715703,-1.800816 -0.643057,-3.419471 -2.28711,-3.320312 z m 9.435547,5.943359 A 2,2 0 0 0 32,17.267082 2,2 0 0 0 31.267578,19.999504 2,2 0 0 0 34,20.731926 a 2,2 0 0 0 0.732422,-2.732422 2,2 0 0 0 -1.779297,-1 z"/>
 <path style="fill:#b1e71e" d="m 23.517578,10.056641 c -0.379397,0.02288 -0.77433,0.136676 -1.162109,0.361328 -0.343966,0.199269 -1.081001,1.04231 -1.636719,1.873047 -1.487213,2.223206 -2.918402,3.024433 -5.851562,3.273437 -1.919009,0.162907 -2.552436,0.33988 -3.144532,0.876953 -0.986505,0.894827 -0.963721,2.206039 0.07227,4.13086 0.640884,1.190739 0.814453,1.912844 0.814453,3.396484 0,1.483644 -0.173569,2.205744 -0.814453,3.396484 -0.171281,0.318233 -0.30269,0.609102 -0.417969,0.888672 -0.133266,0.195984 -0.238271,0.409926 -0.302734,0.636719 -0.07189,0.252905 -0.08682,0.518992 -0.05859,0.787109 -0.02603,0.670545 0.205844,1.215171 0.703125,1.695313 0.990707,0.791643 1.920966,0.624991 2.984375,0.751953 2.708739,0.163268 4.061752,0.953515 5.800781,3.384766 2.38498,3.334326 3.763344,3.323124 6.033203,-0.04687 1.49757,-2.223405 2.869104,-3.457422 5.543414,-3.642654 2.503025,-0.173367 3.441989,-0.670503 3.773437,-1.992187 0.31393,-1.251793 -0.210351,-2.178148 -1.503906,-2.654297 -1.278377,-0.470554 -2.377496,0.153647 -3.582031,2.035156 -1.139419,1.779799 -2.37145,3.22003 -3.82857,3.595779 -1.457247,0.375782 -6.110724,0.306349 -7.181641,-0.107422 -1.492212,-0.576548 -2.930603,-1.805992 -3.740234,-3.195313 -0.542255,-0.700175 -0.898006,-1.507766 -1.234375,-2.220703 -1.536588,-2.878209 -1.354848,-4.541706 0.884766,-8.103516 2.061092,-3.277889 3.989433,-4.484375 7.167969,-4.484375 1.255475,0 2.69984,-0.639789 2.96875,-1.316406 0.715703,-1.800816 -0.643057,-3.4194712 -2.28711,-3.320312 z"/>
 <path style="fill:#f4f4f7;opacity:0.1" d="M 24.128906 4 C 23.780862 3.9997138 23.422317 4.0143948 23.044922 4.0429688 C 20.457973 4.2388018 19.187414 4.7886723 13.433594 8.1953125 C 8.6342043 11.036868 6.8919729 12.684492 5.8066406 15.40625 C 5.1974301 16.934006 5.126677 17.663633 5.0332031 23.357422 C 5.00853 24.860384 5.0003897 25.981663 5.0058594 26.939453 C 5.0092331 26.177364 5.0162341 25.39109 5.0332031 24.357422 C 5.126677 18.663633 5.1974301 17.934006 5.8066406 16.40625 C 6.8919729 13.684492 8.6342042 12.036868 13.433594 9.1953125 C 19.187414 5.7886723 20.457973 5.2388018 23.044922 5.0429688 C 23.422317 5.0143948 23.780862 4.9997138 24.128906 5 C 26.565232 5.0019976 28.514574 5.7896263 33.242188 8.4511719 C 38.478117 11.398891 40.182473 12.799135 41.443359 15.193359 C 42.689352 17.559303 42.975021 19.326356 42.992188 24.666016 C 42.993327 24.476825 43 24.319273 43 24.123047 C 43 18.361507 42.729745 16.636004 41.443359 14.193359 C 40.182473 11.799135 38.478117 10.398891 33.242188 7.4511719 C 28.514574 4.7896263 26.565232 4.0019976 24.128906 4 z"/>
 <circle style="fill:#b1e71e" cx="32.088" cy="-19.579" r="2" transform="rotate(60)"/>
 <path style="fill:#f4f4f7;opacity:0.2" d="M 23.517578 10.056641 C 23.138181 10.079521 22.743248 10.193317 22.355469 10.417969 C 22.011503 10.617238 21.274468 11.460279 20.71875 12.291016 C 19.231537 14.514222 17.800348 15.315449 14.867188 15.564453 C 12.948178 15.72736 12.314752 15.904333 11.722656 16.441406 C 11.120029 16.98803 10.899257 17.693362 11.050781 18.595703 C 11.142031 18.149496 11.363169 17.767485 11.722656 17.441406 C 12.314752 16.904333 12.948179 16.72736 14.867188 16.564453 C 17.800348 16.315449 19.231537 15.514222 20.71875 13.291016 C 21.274468 12.460279 22.011503 11.617238 22.355469 11.417969 C 22.743248 11.193317 23.138181 11.079521 23.517578 11.056641 C 24.683807 10.986301 25.691167 11.786181 25.931641 12.896484 C 26.254419 11.300059 25.012851 9.9664545 23.517578 10.056641 z M 32.953125 16 A 2 2 0 0 0 32 16.267578 A 2 2 0 0 0 31.0625 18.5 A 2 2 0 0 1 32 17.267578 A 2 2 0 0 1 32.953125 17 A 2 2 0 0 1 34.732422 18 A 2 2 0 0 1 34.9375 18.498047 A 2 2 0 0 0 34.732422 17 A 2 2 0 0 0 32.953125 16 z M 12.589844 24.46875 C 12.547383 25.613636 12.354741 26.32511 11.794922 27.365234 C 11.623641 27.683467 11.492232 27.974336 11.376953 28.253906 C 11.243687 28.44989 11.138682 28.663832 11.074219 28.890625 C 11.002329 29.14353 10.987395 29.409617 11.015625 29.677734 C 11.010096 29.820168 11.0232 29.954278 11.041016 30.085938 C 11.052126 30.02059 11.05607 29.954472 11.074219 29.890625 C 11.138682 29.663832 11.243687 29.44989 11.376953 29.253906 C 11.492232 28.974336 11.623641 28.683467 11.794922 28.365234 C 12.435806 27.174494 12.609375 26.452394 12.609375 24.96875 C 12.609375 24.781455 12.595967 24.634247 12.589844 24.46875 z M 13.810547 24.470703 C 13.673338 25.696603 14.01214 26.836959 14.783203 28.28125 C 15.119572 28.994187 15.475323 29.801778 16.017578 30.501953 C 16.827209 31.891274 18.265601 33.120718 19.757812 33.697266 C 20.828731 34.111037 25.482206 34.18047 26.939453 33.804688 C 28.396573 33.428939 29.628159 31.988783 30.767578 30.208984 C 31.972113 28.327475 33.071232 27.703274 34.349609 28.173828 C 35.205152 28.488748 35.716323 29.003087 35.878906 29.675781 C 36.112342 28.502936 35.588854 27.629986 34.349609 27.173828 C 33.071232 26.703274 31.972113 27.327475 30.767578 29.208984 C 29.628159 30.988783 28.396573 32.428938 26.939453 32.804688 C 25.482206 33.18047 20.82873 33.111037 19.757812 32.697266 C 18.265601 32.120718 16.827209 30.891274 16.017578 29.501953 C 15.475323 28.801778 15.119572 27.994187 14.783203 27.28125 C 14.22386 26.233535 13.898128 25.346657 13.810547 24.470703 z"/>
</svg>

<svg xmlns="http://www.w3.org/2000/svg" width="48" height="48" version="1"><path style="opacity:.2" d="M24.128 5c-.348 0-.705.015-1.083.044-2.587.196-3.858.745-9.612 4.152-4.8 2.841-6.541 4.488-7.627 7.21-.609 1.528-.68 2.259-.774 7.952-.085 5.173-.018 6.567.384 7.967.61 2.127 1.906 4.185 3.531 5.611 1.623 1.425 10.139 6.261 11.908 6.763 1.92.545 5.776.32 7.485-.437 2.533-1.121 9.981-5.704 11.114-6.838C42.294 34.582 43 32.13 43 25.122c0-5.761-.27-7.487-1.557-9.93-1.26-2.394-2.964-3.794-8.2-6.742C28.515 5.79 26.565 5.002 24.128 5z"/><path style="fill:#3b3a76" d="M24.128 4c-.348 0-.705.015-1.083.044-2.587.196-3.858.745-9.612 4.152-4.8 2.841-6.541 4.488-7.627 7.21-.609 1.528-.68 2.259-.774 7.952-.085 5.173-.018 6.567.384 7.967.61 2.127 1.906 4.185 3.531 5.611 1.623 1.425 10.139 6.261 11.908 6.763 1.92.545 5.776.32 7.485-.437 2.533-1.121 9.981-5.704 11.114-6.838C42.294 33.582 43 31.13 43 24.122c0-5.761-.27-7.487-1.557-9.93-1.26-2.394-2.964-3.794-8.2-6.742C28.515 4.79 26.565 4.002 24.128 4z"/><path style="opacity:.2" d="M23.518 11.056c-.38.023-.775.137-1.163.361-.343.2-1.08 1.043-1.636 1.874-1.487 2.223-2.919 3.024-5.852 3.273-1.919.163-2.552.34-3.144.877-.987.895-.964 2.206.072 4.13.64 1.192.814 1.914.814 3.397 0 1.484-.173 2.206-.814 3.397-.171.318-.303.609-.418.888-.133.196-.238.41-.303.637a2.075 2.075 0 0 0-.058.787c-.026.67.205 1.215.703 1.696.99.791 1.92.625 2.984.752 2.709.163 4.062.953 5.8 3.384 2.386 3.335 3.764 3.323 6.034-.047 1.498-2.223 2.869-3.457 5.543-3.642 2.503-.174 3.442-.67 3.774-1.992.313-1.252-.21-2.179-1.504-2.655-1.279-.47-2.378.154-3.582 2.035-1.14 1.78-2.371 3.22-3.829 3.596-1.457.376-6.11.307-7.181-.107-1.492-.577-2.93-1.806-3.74-3.196-.543-.7-.898-1.507-1.235-2.22-1.536-2.878-1.355-4.542.885-8.104 2.061-3.278 3.99-4.484 7.168-4.484 1.255 0 2.7-.64 2.969-1.317.715-1.8-.643-3.419-2.287-3.32zM32.953 17a2 2 0 0 0-.953.267A2 2 0 0 0 31.268 20a2 2 0 0 0 2.732.732A2 2 0 0 0 34.732 18a2 2 0 0 0-1.779-1z"/><path style="fill:#b1e71e" d="M23.518 10.057c-.38.023-.775.136-1.163.361-.343.2-1.08 1.042-1.636 1.873-1.487 2.223-2.919 3.024-5.852 3.273-1.919.163-2.552.34-3.144.877-.987.895-.964 2.206.072 4.131.64 1.191.814 1.913.814 3.397 0 1.483-.173 2.205-.814 3.396-.171.318-.303.61-.418.889-.133.196-.238.41-.303.637a2.075 2.075 0 0 0-.058.787c-.026.67.205 1.215.703 1.695.99.792 1.92.625 2.984.752 2.709.163 4.062.954 5.8 3.385 2.386 3.334 3.764 3.323 6.034-.047 1.498-2.224 2.87-3.458 5.544-3.643 2.503-.173 3.442-.67 3.773-1.992.314-1.252-.21-2.178-1.504-2.654-1.278-.47-2.377.153-3.582 2.035-1.14 1.78-2.371 3.22-3.829 3.596-1.457.375-6.11.306-7.181-.108-1.492-.576-2.93-1.806-3.74-3.195-.543-.7-.898-1.508-1.235-2.22-1.536-2.879-1.355-4.542.885-8.104 2.061-3.278 3.99-4.485 7.168-4.485 1.255 0 2.7-.64 2.969-1.316.715-1.8-.643-3.42-2.287-3.32z"/><path style="fill:#f4f4f7;opacity:.1" d="M24.129 4c-.348 0-.707.014-1.084.043-2.587.196-3.858.746-9.611 4.152-4.8 2.842-6.542 4.49-7.627 7.211-.61 1.528-.68 2.258-.774 7.951a162.491 162.491 0 0 0-.027 3.582c.003-.762.01-1.548.027-2.582.094-5.693.164-6.423.774-7.95 1.085-2.723 2.827-4.37 7.627-7.212 5.753-3.406 7.024-3.956 9.61-4.152.378-.029.737-.043 1.085-.043 2.436.002 4.386.79 9.113 3.451 5.236 2.948 6.94 4.348 8.201 6.742 1.246 2.366 1.532 4.133 1.55 9.473 0-.19.007-.347.007-.543 0-5.761-.27-7.487-1.557-9.93-1.26-2.394-2.965-3.794-8.2-6.742C28.514 4.79 26.564 4.002 24.128 4z"/><circle style="fill:#b1e71e" cx="32.088" cy="-19.579" r="2" transform="rotate(60)"/><path style="fill:#f4f4f7;opacity:.2" d="M23.518 10.057c-.38.023-.775.136-1.163.361-.343.2-1.08 1.042-1.636 1.873-1.487 2.223-2.919 3.024-5.852 3.273-1.919.163-2.552.34-3.144.877-.603.547-.824 1.252-.672 2.155.091-.447.312-.829.672-1.155.592-.537 1.225-.714 3.144-.877 2.933-.249 4.365-1.05 5.852-3.273.555-.83 1.293-1.674 1.636-1.873a2.627 2.627 0 0 1 1.163-.361 2.328 2.328 0 0 1 2.414 1.84c.322-1.597-.92-2.93-2.414-2.84zM32.953 16a2 2 0 0 0-.953.268 2 2 0 0 0-.938 2.232A2 2 0 0 1 32 17.268a2 2 0 0 1 .953-.268 2 2 0 0 1 1.78 1 2 2 0 0 1 .205.498A2 2 0 0 0 34.731 17a2 2 0 0 0-1.779-1zM12.59 24.469c-.043 1.145-.235 1.856-.795 2.896-.171.318-.303.61-.418.889-.133.196-.238.41-.303.637a2.075 2.075 0 0 0-.058.787 2.33 2.33 0 0 0 .025.408c.011-.065.015-.132.033-.195.065-.227.17-.441.303-.637.115-.28.247-.57.418-.889.64-1.19.814-1.913.814-3.396 0-.188-.013-.335-.02-.5zm1.22.002c-.137 1.226.202 2.366.973 3.81.337.713.692 1.52 1.235 2.221.81 1.39 2.248 2.619 3.74 3.195 1.07.414 5.724.483 7.181.108 1.458-.376 2.69-1.816 3.829-3.596 1.204-1.882 2.303-2.506 3.582-2.035.855.315 1.366.83 1.529 1.502.233-1.173-.29-2.046-1.53-2.502-1.278-.47-2.377.153-3.581 2.035-1.14 1.78-2.371 3.22-3.829 3.596-1.457.375-6.11.306-7.181-.108-1.492-.576-2.93-1.806-3.74-3.195-.543-.7-.898-1.508-1.235-2.22-.56-1.048-.885-1.935-.972-2.811z"/></svg>
